!!!!SEGMENT: pl-stab--7a--002_matuszkiewicz-franciszek--sinphonia-ex-b-andante.krn
!!!cenid: 18xx:3535
!!!COM: Matuszkiewicz, Franciszek
!!!COM-rismid:
!!!CDT:
!!!CNT:
!!!OPR: Sinphonia ex B
!!!OTL: Andante
!!!OMV: 002
!!!PDT:
!!!AGN:
!!!SMS-siglum: PL-STAb
!!!SMS-shelfmark: 7a
!!!SMS-shelfwork: M
!!!SMS-variant:
!!!SMS-altvar:
!!!NIFC-rismid: 301050601
!!!URL-scan: https://repozytorium.nifc.pl/islandora/object/pl-stab%3A1758/datastream/PDF/view
!!!ONB-nifc: UWAGA: części: 1. Allegro, 2. Andante, 3. Rondo
!!!key: F
**kern	**fba	**dynam	**kern	**dynam	**kern	**dynam	**kern	**dynam	**kern	**dynam	**kern	**dynam	**kern	**dynam	**kern	**dynam
*	*	*	*group3	*	*group3	*	*group3	*	*group2	*	*group2	*	*group1	*	*group1	*
*part8	*part8	*part8	*part7	*part7	*part6	*part6	*part5	*part5	*part4	*	*part3	*	*part2	*part2	*part1	*part1
*staff8	*	*	*staff7	*	*staff6	*	*staff5	*	*staff4	*	*staff3	*	*staff2	*	*staff1	*
*I"Organo.	*	*	*I"Alto Viola Obligata.	*	*I"Violino Secundo.	*	*I"Violino Primo.	*	*I"Corno Secundo in B:	*	*I"Corno Primo. in B:	*	*I"Clarinetto Secundo.	*	*I"Clarinetto Primo.	*
*I'org	*	*	*I'vla	*	*I'vl 2	*	*I'vl 1	*	*I'cor 2 in B|b	*	*I'cor 1 in B|b	*	*I'cl 2	*	*I'cl 1	*
*Iorgan	*	*	*Iviola	*	*Ivioln	*	*Ivioln	*	*Icor	*	*Icor	*	*Iclars	*	*Iclars	*
*ICklav	*	*	*ICstr	*	*ICstr	*	*ICstr	*	*ICbras	*	*ICbras	*	*ICww	*	*ICww	*
*>[A,A<B,B]	*	*>[A,A<B,B]	*>[A,A<B,B]	*>[A,A<B,B]	*>[A,A<B,B]	*>[A,A<B,B]	*>[A,A<B,B]	*>[A,A<B,B]	*>[A,A<B,B]	*	*>[A,A<B,B]	*	*>[A,A<B,B]	*>[A,A<B,B]	*>[A,A<B,B]	*>[A,A<B,B]
*>A	*	*>A	*>A	*>A	*>A	*>A	*>A	*>A	*>A	*	*>A	*	*>A	*>A	*>A	*>A
*clefF4	*	*	*clefC3	*	*clefG2	*	*clefG2	*	*clefG2	*	*clefG2	*	*clefG2	*	*clefG2	*
*	*	*	*	*	*	*	*	*	*ITrd4c7	*	*ITrd4c7	*	*	*	*	*
*k[b-]	*	*	*k[b-]	*	*k[b-]	*	*k[b-]	*	*k[b-]	*	*k[b-]	*	*k[b-]	*	*k[b-]	*
*F:	*	*	*F:	*	*F:	*	*F:	*	*F:	*	*F:	*	*F:	*	*F:	*
*M3/4	*	*	*M3/4	*	*M3/4	*	*M3/4	*	*M3/4	*	*M3/4	*	*M3/4	*	*M3/4	*
=1	=1	=1	=1	=1	=1	=1	=1	=1	=1	=1	=1	=1	=1	=1	=1	=1
*all\right	*	*	*all\right	*	*all\right	*	*all\right	*	*all\right	*	*all\right	*	*all\right	*	*all\right	*
*	*	*	*2\right	*	*	*	*	*	*	*	*	*	*	*	*2\right	*
*	*	*	*tremolo	*	*	*	*	*	*	*	*	*	*	*	*	*
!LO:TX:a:i:t=Andante.	!	!LO:DY:t=p&colon;	!LO:TX:a:i:t=Andante.	!LO:DY:t=p&colon;	!LO:TX:a:i:t=Andante	!LO:DY:rj	!LO:TX:a:i:t=Andante	!LO:DY:t=p&colon;	!LO:TX:a:i:t=Andante in F.	!	!LO:TX:a:i:t=Andante. in F.	!	!LO:TX:a:i:rj:t=Andante in F.	!	!LO:TX:a:i:t=Andante. in F	!
8F\	.	p	8f\L	p	8a/	p	16r	p	8.F/L	.	8.f\L	.	8a\L	.	2ff\	.
.	.	.	.	.	.	.	16f'/LL	.	.	.	.	.	.	.	.	.
8r	.	.	8f\	.	8r	.	(16e/	.	.	.	.	.	8cc\	.	.	.
.	.	.	.	.	.	.	16f/JJ)	.	16F/Jk	.	16f\Jk	.	.	.	.	.
8F\	.	.	8f\	.	8a/	.	16a'/LL	.	8.F/L	.	8.f\L	.	8a\	.	.	.
.	.	.	.	.	.	.	16f'/	.	.	.	.	.	.	.	.	.
8r	.	.	8f\	.	8r	.	(16e/	.	.	.	.	.	8cc\	.	.	.
.	.	.	.	.	.	.	16f/JJ)	.	16F/Jk	.	16f\Jk	.	.	.	.	.
!	!	!	!	!	!	!	!LO:TX:t=P:problem:mixed beam	!	!	!	!	!	!	!	!	!
8F\	.	.	8f\	.	8a/	.	16cc'\LL	.	8.F/L	.	8.f\L	.	8a\	.	4ee-X\	.
.	.	.	.	.	.	.	16f/	.	.	.	.	.	.	.	.	.
8r	.	.	8f\J	.	8r	.	16e/	.	.	.	.	.	8cc\J	.	.	.
.	.	.	.	.	.	.	16f/JJ	.	16F/Jk	.	16f\Jk	.	.	.	.	.
=2	=2	=2	=2	=2	=2	=2	=2	=2	=2	=2	=2	=2	=2	=2	=2	=2
4F\	6 4	.	8f\L	.	8b-\L	.	16dd'\LL	.	4F/	.	4f\	.	8b-\L	.	4dd\	.
.	.	.	.	.	.	.	16b-'\	.	.	.	.	.	.	.	.	.
.	.	.	8f\	.	8g\J	.	(16a\	.	.	.	.	.	8g\J	.	.	.
.	.	.	.	.	.	.	16b-\JJ)	.	.	.	.	.	.	.	.	.
4FF/	5 3	.	8f\	.	8a\L	.	16r	.	4F/	.	4f\	.	4a\	.	4cc\	.
.	.	.	.	.	.	.	16cc\LL	.	.	.	.	.	.	.	.	.
.	.	.	8f\	.	8a\	.	16a\	.	.	.	.	.	.	.	.	.
.	.	.	.	.	.	.	16cc\JJ	.	.	.	.	.	.	.	.	.
4r	.	.	8f\	.	8cc\	.	16ff\LL	.	4r	.	4r	.	8r	.	8ff\L	.
.	.	.	.	.	.	.	16cc\	.	.	.	.	.	.	.	.	.
.	.	.	8f\J	.	8cc\J	.	16aa\	.	.	.	.	.	8ff\	.	8aa\J	.
.	.	.	.	.	.	.	16ff\JJ	.	.	.	.	.	.	.	.	.
=3	=3	=3	=3	=3	=3	=3	=3	=3	=3	=3	=3	=3	=3	=3	=3	=3
*	*	*	*	*	*	*	*	*	*	*	*	*	*2\right	*	*	*
8C\L	7	.	8c\L	.	8b-/L	.	16bb-\LL	.	4.c/	.	4.g\	.	2gg\	.	2bb-\	.
.	.	.	.	.	.	.	16gg\	.	.	.	.	.	.	.	.	.
8D\	.	.	8c\	.	8b-/	.	16ee\	.	.	.	.	.	.	.	.	.
.	.	.	.	.	.	.	16cc\JJ	.	.	.	.	.	.	.	.	.
8E\	.	.	8c\	.	8g/	.	(16bn\LL	.	.	.	.	.	.	.	.	.
.	.	.	.	.	.	.	16cc\)	.	.	.	.	.	.	.	.	.
8C\	.	.	8c\J	.	8g/	.	16dd\	.	8c/	.	8g\	.	.	.	.	.
.	.	.	.	.	.	.	16cc\JJ	.	.	.	.	.	.	.	.	.
*	*	*	*Xtremolo	*	*	*	*	*	*	*	*	*	*	*	*	*
8D\	.	.	8d\L	.	8e/	.	(16bn\LL	.	4c/	.	4g\	.	(8aa\L	.	(8ccc\L	.
.	.	.	.	.	.	.	16cc\)	.	.	.	.	.	.	.	.	.
8E\J	.	.	8e\J	.	8e/J	.	16g\	.	.	.	.	.	8gg\J)	.	8bb-\J)	.
.	.	.	.	.	.	.	16b-X\JJ	.	.	.	.	.	.	.	.	.
=4	=4	=4	=4	=4	=4	=4	=4	=4	=4	=4	=4	=4	=4	=4	=4	=4
4F\	4 2	.	4f\	.	4g/	.	4b-/	.	4c/	.	(8g\L	.	(8gg\L	.	(8bb-\L	.
.	.	.	.	.	.	.	.	.	.	.	8f\J)	.	8ff\J)	.	8gg\J)	.
4FF/	3 8	.	4F/	.	4f/	.	4a/	.	4A/	.	4f\	.	4ff\	.	4aa\	.
4r	.	.	4r	.	4r	.	(16f/LL	.	4r	.	4r	.	4r	.	4r	.
.	.	.	.	.	.	.	16e/	.	.	.	.	.	.	.	.	.
.	.	.	.	.	.	.	16f/	.	.	.	.	.	.	.	.	.
.	.	.	.	.	.	.	16g/JJ)	.	.	.	.	.	.	.	.	.
!	!	!	!	!	!	!	!LO:LB:g=original	!	!	!	!	!	!	!	!	!
=5	=5	=5	=5	=5	=5	=5	=5	=5	=5	=5	=5	=5	=5	=5	=5	=5
!	!	!	!	!	!	!	!	!	!LO:TX::a:t=1	!	!LO:TX:a:t=1	!	!LO:TX:a:t=1	!	!LO:TX:a:t=1	!
8F\L	-3_ 8_	.	8f\L	.	2.f/	.	2.a-X/	.	2.r	.	2.r	.	2.r	.	2.r	.
8E\	.	.	8e\	.	.	.	.	.	.	.	.	.	.	.	.	.
8F\	.	.	8f\	.	.	.	.	.	.	.	.	.	.	.	.	.
8D-X\	.	.	8d-X\	.	.	.	.	.	.	.	.	.	.	.	.	.
8C\	.	.	8c\	.	.	.	.	.	.	.	.	.	.	.	.	.
8BBn\J	.	.	8Bn\J	.	.	.	.	.	.	.	.	.	.	.	.	.
=6	=6	=6	=6	=6	=6	=6	=6	=6	=6	=6	=6	=6	=6	=6	=6	=6
4C\	-6 4	.	4c/	.	4f/	.	4a-X/	.	4r	.	4r	.	4r	.	4r	.
4CC/	n	.	4c/	.	4e/	.	4g/	.	8r	.	8r	.	8r	.	8r	.
.	.	.	.	.	.	.	.	.	8c/L	.	8cc\L	.	8c/L	.	8cc\L	.
4r	.	.	8c/L	.	4r	.	4r	.	8c/	.	8cc\	.	8c/	.	8cc\	.
.	.	.	8c/J	.	.	.	.	.	8c/J	.	8cc\J	.	8c/J	.	8cc\J	.
=7	=7	=7	=7	=7	=7	=7	=7	=7	=7	=7	=7	=7	=7	=7	=7	=7
*	*	*	*tremolo	*	*	*	*	*	*	*	*2\right	*	*	*	*	*
!LO:TX:a:t=5	!	!	!	!	!	!	!	!	!	!	!	!	!	!	!	!
0.r	.	.	8c\L	.	8.g/L	.	8.b-/L	p	[2.c/	.	[<2.cc\	.	[2.c/	.	[<2.cc\	.
.	.	.	8c\	.	.	.	.	.	.	.	.	.	.	.	.	.
.	.	.	.	.	16f/Jk	.	16a-X/Jk	.	.	.	.	.	.	.	.	.
.	.	.	8c\	.	8e/L	.	8g/L	.	.	.	.	.	.	.	.	.
.	.	.	8c\	.	8e/J	.	8g/J	.	.	.	.	.	.	.	.	.
.	.	.	8c\	.	(16e/LL	.	(16g/LL	.	.	.	.	.	.	.	.	.
.	.	.	.	.	16f/)	.	16a-X/)	.	.	.	.	.	.	.	.	.
.	.	.	8c\J	.	(16f/	.	(16a-/	.	.	.	.	.	.	.	.	.
.	.	.	.	.	16g/JJ)	.	16b-/JJ)	.	.	.	.	.	.	.	.	.
=8	=8	=8	=8	=8	=8	=8	=8	=8	=8	=8	=8	=8	=8	=8	=8	=8
.	.	.	8c\L	.	(16g/LL	.	(16b-/LL	.	2.c/_	.	2.cc\_<	.	2.c/_	.	2.cc\_<	.
.	.	.	.	.	16f/)	.	16a-X/)	.	.	.	.	.	.	.	.	.
.	.	.	8c\	.	(16e/	.	(16g/	.	.	.	.	.	.	.	.	.
.	.	.	.	.	16f/JJ)	.	16a-/JJ)	.	.	.	.	.	.	.	.	.
.	.	.	8c\	.	(16f/LL	.	(16a-/LL	.	.	.	.	.	.	.	.	.
.	.	.	.	.	16e/)	.	16g/)	.	.	.	.	.	.	.	.	.
.	.	.	8c\	.	(16d/	.	(16f/	.	.	.	.	.	.	.	.	.
.	.	.	.	.	16e/JJ)	.	16g/JJ)	.	.	.	.	.	.	.	.	.
.	.	.	8c\	.	4e/	.	4g/	.	.	.	.	.	.	.	.	.
.	.	.	8c\J	.	.	.	.	.	.	.	.	.	.	.	.	.
!	!	!	!	!	!LO:LB:g=original	!	!	!	!	!	!	!	!	!	!	!
=9	=9	=9	=9	=9	=9	=9	=9	=9	=9	=9	=9	=9	=9	=9	=9	=9
.	.	.	8c\L	.	8.g/L	.	8.b-/L	.	2.c/_	.	2.cc\_<	.	2.c/_	.	2.cc\_<	.
.	.	.	8c\	.	.	.	.	.	.	.	.	.	.	.	.	.
.	.	.	.	.	16f/Jk	.	16a-X/Jk	.	.	.	.	.	.	.	.	.
.	.	.	8c\	.	8e/L	.	8g/L	.	.	.	.	.	.	.	.	.
.	.	.	8c\	.	8e/J	.	8g/J	.	.	.	.	.	.	.	.	.
.	.	.	8c\	.	16e/LL	.	(16g/LL	.	.	.	.	.	.	.	.	.
.	.	.	.	.	16f/	.	16a-X/)	.	.	.	.	.	.	.	.	.
.	.	.	8c\J	.	16f/	.	(16a-/	.	.	.	.	.	.	.	.	.
.	.	.	.	.	16g/JJ	.	16b-/JJ)	.	.	.	.	.	.	.	.	.
=10	=10	=10	=10	=10	=10	=10	=10	=10	=10	=10	=10	=10	=10	=10	=10	=10
.	.	.	8c\L	.	(16a-X/LL	.	(16cc/LL	.	2.c/_	.	2.cc\_<	.	2.c/_	.	2.cc\_<	.
.	.	.	.	.	16g/)	.	16b-/)	.	.	.	.	.	.	.	.	.
.	.	.	8c\	.	(16f/	.	(16a-X/	.	.	.	.	.	.	.	.	.
.	.	.	.	.	16g/JJ)	.	16b-/JJ)	.	.	.	.	.	.	.	.	.
.	.	.	8c\	.	16g/LL	.	(16b-/LL	.	.	.	.	.	.	.	.	.
.	.	.	.	.	16f/	.	16a-/)	.	.	.	.	.	.	.	.	.
.	.	.	8c\	.	16e/	.	(16g/	.	.	.	.	.	.	.	.	.
.	.	.	.	.	16f/JJ	.	16a-/JJ)	.	.	.	.	.	.	.	.	.
.	.	.	8c\	.	16f/LL	.	16a-/LL	.	.	.	.	.	.	.	.	.
.	.	.	.	.	16a-X/	.	16cc/	.	.	.	.	.	.	.	.	.
.	.	.	8c\J	.	16g/	.	16b-/	.	.	.	.	.	.	.	.	.
.	.	.	.	.	16f/JJ	.	16a-/JJ	.	.	.	.	.	.	.	.	.
*	*	*	*Xtremolo	*	*	*	*	*	*	*	*	*	*	*	*	*
!	!	!	!	!	!	!	!LO:LB:g=original	!	!	!	!	!	!	!	!	!
=11	=11	=11	=11	=11	=11	=11	=11	=11	=11	=11	=11	=11	=11	=11	=11	=11
.	.	.	.	.	8qqf/	.	8qqa-X/	.	.	.	.	.	.	.	.	.
2.r	.	.	8c\L	.	4e/	.	4g/	.	4c/]	.	4cc\]	.	4c/]	.	4cc\]	.
.	.	.	8c\J	.	.	.	.	.	.	.	.	.	.	.	.	.
!	!	!	!	!	!	!	!LO:TX:t=P:problem:mixed beam	!	!	!	!	!	!	!	!	!
.	.	.	4c\	.	4e 4G/	.	16g/LL	.	4c/	.	4cc\	.	4c/	.	4cc\	.
.	.	.	.	.	.	.	16cc\	.	.	.	.	.	.	.	.	.
.	.	.	.	.	.	.	(16bn\	.	.	.	.	.	.	.	.	.
.	.	.	.	.	.	.	16cc\JJ)	.	.	.	.	.	.	.	.	.
.	.	.	4r	.	4r	.	(16b\LL	.	4r	.	4r	.	4r	.	4r	.
.	.	.	.	.	.	.	16cc\)	.	.	.	.	.	.	.	.	.
.	.	.	.	.	.	.	(16b\	.	.	.	.	.	.	.	.	.
.	.	.	.	.	.	.	16cc\JJ)	.	.	.	.	.	.	.	.	.
!	!	!	!LO:LB:g=original	!	!	!	!	!	!	!	!	!	!	!	!	!
=12	=12	=12	=12	=12	=12	=12	=12	=12	=12	=12	=12	=12	=12	=12	=12	=12
!	!	!LO:DY:rj	!	!	!	!	!	!	!LO:TX:a:t=2	!	!LO:TX:a:t=2	!	!LO:TX:a:t=1	!	!LO:TX:a:t=1	!
4c\	n	p	8cc\L	.	8r	.	8cc\L	.	1.r	.	1.r	.	2.r	.	2.r	.
.	.	.	8cc\	.	16cc\LL	.	16een\L	.	.	.	.	.	.	.	.	.
.	.	.	.	.	16dd\JJ	.	16ff\JJ	.	.	.	.	.	.	.	.	.
4r	.	.	8cc\	.	8ee\L	.	8gg\L	.	.	.	.	.	.	.	.	.
.	.	.	8cc\	.	8ee\J	.	8gg\J	.	.	.	.	.	.	.	.	.
4G\	n	.	8g\	.	(16ee\LL	.	(16gg\LL	.	.	.	.	.	.	.	.	.
.	.	.	.	.	16ff\)	.	16aa\)	.	.	.	.	.	.	.	.	.
.	.	.	8g\J	.	16ee\	.	16gg\	.	.	.	.	.	.	.	.	.
.	.	.	.	.	16dd\JJ	.	16ff\JJ	.	.	.	.	.	.	.	.	.
!	!	!	!	!	!	!	!	!	!	!	!	!	!LO:LB:g=original	!	!	!
=13	=13	=13	=13	=13	=13	=13	=13	=13	=13	=13	=13	=13	=13	=13	=13	=13
*	*	*	*	*	*2\right	*	*	*	*	*	*	*	*	*	*	*
!	!	!	!	!	!	!	!	!LO:DY:rj	!	!	!	!	!	!	!	!LO:DY:t=p&colon;
4C/	.	.	8e\L	.	2cc\	.	8ee\L	p	.	.	.	.	8r	.	8r	p
!	!	!	!	!	!	!	!	!	!	!	!	!	!	!LO:DY:rj	!	!
.	.	.	8e\	.	.	.	16cc\L	.	.	.	.	.	16cc\LL	p	16ee\LL	.
.	.	.	.	.	.	.	16dd\JJ	.	.	.	.	.	16dd\JJ	.	16ff\JJ	.
!	!	!	!	!	!	!	!	!	!	!	!	!	!	!	!LO:LB:g=original	!
4r	.	.	8e\	.	.	.	8ee\L	.	.	.	.	.	8ee\L	.	8gg\L	.
.	.	.	8e\	.	.	.	8ee\J	.	.	.	.	.	8ee\J	.	8gg\J	.
4GG/	.	.	8g\	.	4bn\	.	(16ee\LL	.	.	.	.	.	(16ee\LL	.	(16gg\LL	.
.	.	.	.	.	.	.	16ff\)	.	.	.	.	.	16ff\)	.	16aa\)	.
.	.	.	8g\J	.	.	.	16ee\	.	.	.	.	.	16ee\	.	16gg\	.
.	.	.	.	.	.	.	16dd\JJ	.	.	.	.	.	16dd\JJ	.	16ff\JJ	.
!LO:LB:g=original	!	!	!	!	!	!	!	!	!	!	!	!	!	!	!	!
=14	=14	=14	=14	=14	=14	=14	=14	=14	=14	=14	=14	=14	=14	=14	=14	=14
8C\L	.	.	8cc\L	.	8cc\L	.	16cc\LL	.	4r	.	4r	.	8cc\L	.	8ee\L	.
!	!	!	!	!	!	!	!	!	!	!	!	!	!	!LO:DY:a	!	!LO:DY:a
.	.	.	.	.	.	.	16g\	.	.	.	.	.	.	f	.	f
8C\	.	.	8cc\	.	8cc\	.	16cc\	.	.	.	.	.	8ee\J	.	8ccc\J	.
.	.	.	.	.	.	.	16ee\JJ	.	.	.	.	.	.	.	.	.
8E\	.	.	8cc\	.	8g\	.	16ee\LL	.	4c/	.	4g\	.	4.ee\	.	4.gg\	.
.	.	.	.	.	.	.	16dd\	.	.	.	.	.	.	.	.	.
8E\	.	.	8cc\	.	8g\	.	16cc\	.	.	.	.	.	.	.	.	.
.	.	.	.	.	.	.	[16bn\JJ	.	.	.	.	.	.	.	.	.
8G\	n	.	8bn\	.	8f\	.	8.b\L]	.	[4g\	.	4g\	.	.	.	.	.
8G\J	.	.	8b\J	.	8f\J	.	.	.	.	.	.	.	8dd\	.	8ff\	.
.	.	.	.	.	.	.	16dd\Jk	.	.	.	.	.	.	.	.	.
!	!	!	!	!	!	!	!	!	!LO:LB:g=original	!	!LO:LB:g=original	!	!	!	!	!
=15	=15	=15	=15	=15	=15	=15	=15	=15	=15	=15	=15	=15	=15	=15	=15	=15
!	!	!	!	!	!	!	!	!	!LO:TX:t=P:problem:brak zakończenia ligatury	!	!	!	!	!	!	!
4c\	2	.	4cc\	.	4f/	.	4dd\	.	4g\]	.	8.g\L	.	(8dd\L	.	8ff\L	.
.	.	.	.	.	.	.	.	.	.	.	.	.	8cc\J)	.	8dd\J	.
.	.	.	.	.	.	.	.	.	.	.	16g\Jk	.	.	.	.	.
4C/	.	.	4c/	.	4e/	.	4cc\	.	4c/	.	4g\	.	4cc\	.	4ee\	.
4r	.	.	4r	.	4r	.	4r	.	4r	.	4r	.	4r	.	4r	.
!	!	!	!	!	!LO:LB:g=original	!	!LO:LB:g=original	!	!	!	!	!	!	!	!	!
=16:|!|:	=16:|!|:	=16:|!|:	=16:|!|:	=16:|!|:	=16:|!|:	=16:|!|:	=16:|!|:	=16:|!|:	=16:|!|:	=16:|!|:	=16:|!|:	=16:|!|:	=16:|!|:	=16:|!|:	=16:|!|:	=16:|!|:
*>B	*	*>B	*>B	*>B	*>B	*>B	*>B	*>B	*>B	*	*>B	*	*>B	*>B	*>B	*>B
!	!	!LO:DY:rj	!	!LO:DY:rj	!	!LO:DY:rj	!	!LO:DY:rj	!LO:TX:a:t=3	!	!LO:TX:a:t=3	!	!LO:TX:a:t=3	!	!LO:TX:a:t=3	!
4c\	-	f	8e-X\	f	8.ee-X\L	f	8.ee-X\L	f	1.r	.	1.r	.	1.r	.	1.r	.
.	.	.	4e-\	.	.	.	.	.	.	.	.	.	.	.	.	.
.	.	.	.	.	16cc\Jk	.	16cc\Jk	.	.	.	.	.	.	.	.	.
4c\	.	.	.	.	8.g/L	.	8.g/L	.	.	.	.	.	.	.	.	.
.	.	.	4e-\	.	.	.	.	.	.	.	.	.	.	.	.	.
.	.	.	.	.	16e-X/Jk	.	16e-X/Jk	.	.	.	.	.	.	.	.	.
4r	.	.	.	.	4c/	.	4c/	.	.	.	.	.	.	.	.	.
.	.	.	8e-\	.	.	.	.	.	.	.	.	.	.	.	.	.
=17	=17	=17	=17	=17	=17	=17	=17	=17	=17	=17	=17	=17	=17	=17	=17	=17
4A\	-5	.	8c\	.	8.ee-X\L	.	8.ee-X\L	.	.	.	.	.	.	.	.	.
.	.	.	4c\	.	.	.	.	.	.	.	.	.	.	.	.	.
.	.	.	.	.	16cc\Jk	.	16cc\Jk	.	.	.	.	.	.	.	.	.
4A\	.	.	.	.	8.a/L	.	8.a/L	.	.	.	.	.	.	.	.	.
.	.	.	4c\	.	.	.	.	.	.	.	.	.	.	.	.	.
.	.	.	.	.	16f/Jk	.	16f/Jk	.	.	.	.	.	.	.	.	.
4r	.	.	.	.	4e-X/	.	4e-X/	.	.	.	.	.	.	.	.	.
.	.	.	8c\	.	.	.	.	.	.	.	.	.	.	.	.	.
=18	=18	=18	=18	=18	=18	=18	=18	=18	=18	=18	=18	=18	=18	=18	=18	=18
4r	.	.	8d\L	.	8d/	.	8d/L	.	2.r	.	2.r	.	2.r	.	2.r	.
.	.	.	8d\	.	4f/	.	8f/	.	.	.	.	.	.	.	.	.
!	!	!	!LO:TX:a:t=b	!	!	!	!	!	!	!	!	!	!	!	!	!
4B-\	.	.	8B-\	.	.	.	8b-/	.	.	.	.	.	.	.	.	.
.	.	.	8B-\	.	4b-/	.	8dd/	.	.	.	.	.	.	.	.	.
4D\	6	.	8b-\	.	.	.	8ff/	.	.	.	.	.	.	.	.	.
.	.	.	8b-\J	.	8dd\	.	8bb-/J	.	.	.	.	.	.	.	.	.
=19	=19	=19	=19	=19	=19	=19	=19	=19	=19	=19	=19	=19	=19	=19	=19	=19
8r	.	.	8d\L	.	8r	.	(16aa\LL	.	8r	.	8r	.	8r	.	8r	.
.	.	.	.	.	.	.	16gg\)	.	.	.	.	.	.	.	.	f
!LO:TX:t=P:problem:♭ above	!	!	!	!	!	!	!	!	!	!	!	!	!	!	!	!
8E-\	6	.	8e-X\	.	8cc\	.	16ff\	.	8f\	.	8f\	.	8cc\L	.	8ee-X\	.
.	.	.	.	.	.	.	16ee-X\JJ	.	.	.	.	.	.	.	.	.
*	*	*	*	*	*	*	*	*	*2\right	*	*	*	*	*	*	*
!LO:TX:t=P:problem:mixed beam	!	!	!	!	!	!	!	!	!	!	!	!	!	!	!	!
8F\L	6 4	.	8f\	.	8b-\L	.	4dd\	.	[2f\	.	[2f\	.	8b-\	.	8dd\L	.
8F\	.	.	8f\	.	8f\	.	.	.	.	.	.	.	8dd\	.	8bb-\	.
!	!	!	!	!	!LO:SIC:v:s=8e-\	!	!	!	!	!	!	!	!	!	!	!
8FF/	5 3	.	8e-X\	.	8e\	.	4cc\	.	.	.	.	.	8a\	.	8cc\	.
8FF/J	.	.	8e-\J	.	8f\J	.	.	.	.	.	.	.	8cc\J	.	8aa\J	.
!	!	!	!LO:LB:g=original	!	!	!	!	!	!	!	!	!	!	!	!	!
=20	=20	=20	=20	=20	=20	=20	=20	=20	=20	=20	=20	=20	=20	=20	=20	=20
4BB-/	.	.	8d\L	.	4d/	.	8b-/L	.	4f\]	.	4f\]	.	4dd\	.	8bb-\L	.
.	.	.	8B-\	.	.	.	8f/J	.	.	.	.	.	.	.	8ff\J	.
4r	.	.	8B-\	.	(16d/LL	.	(16f/LL	.	4r	.	4r	.	(16dd\LL	.	(16ff\LL	.
.	.	.	.	.	16c/)	.	16e-X/)	.	.	.	.	.	16cc\)	.	16ee-X\)	.
.	.	.	8B-\J	.	(16B-/	.	(16d/	.	.	.	.	.	(16b-\	.	(16dd\	.
.	.	.	.	.	16c/JJ)	.	16e-/JJ)	.	.	.	.	.	16cc\JJ)	.	16ee-\JJ)	.
4r	.	.	4B-\	.	4B-/	.	4d/	.	4r	.	4r	.	4b-\	.	4dd\	.
=21	=21	=21	=21	=21	=21	=21	=21	=21	=21	=21	=21	=21	=21	=21	=21	=21
!	!	!	!	!	!	!	!	!	!LO:TX:a:t=3	!	!LO:TX:a:t=3	!	!LO:TX:a:t=3	!	!LO:TX:a:t=3	!
4d\	3	.	8f\	.	8.ff\L	.	8.ff\L	.	1.r	.	1.r	.	1.r	.	1.r	.
.	.	.	4f\	.	.	.	.	.	.	.	.	.	.	.	.	.
.	.	.	.	.	16dd\Jk	.	16dd\Jk	.	.	.	.	.	.	.	.	.
4d\	.	.	.	.	8.a/L	.	8.a/L	.	.	.	.	.	.	.	.	.
.	.	.	4f\	.	.	.	.	.	.	.	.	.	.	.	.	.
.	.	.	.	.	16f/Jk	.	16f/Jk	.	.	.	.	.	.	.	.	.
4r	.	.	.	.	4d/	.	4d/	.	.	.	.	.	.	.	.	.
.	.	.	8f\	.	.	.	.	.	.	.	.	.	.	.	.	.
=22	=22	=22	=22	=22	=22	=22	=22	=22	=22	=22	=22	=22	=22	=22	=22	=22
4Bn\	5	.	8d\	.	8.ff\L	.	8.ff\L	.	.	.	.	.	.	.	.	.
.	.	.	4d\	.	.	.	.	.	.	.	.	.	.	.	.	.
.	.	.	.	.	16dd\Jk	.	16dd\Jk	.	.	.	.	.	.	.	.	.
4B\	.	.	.	.	8.bn/L	.	8.bn/L	.	.	.	.	.	.	.	.	.
.	.	.	4d\	.	.	.	.	.	.	.	.	.	.	.	.	.
.	.	.	.	.	16g/Jk	.	16g/Jk	.	.	.	.	.	.	.	.	.
4r	.	.	.	.	4f/	.	4f/	.	.	.	.	.	.	.	.	.
.	.	.	8d\	.	.	.	.	.	.	.	.	.	.	.	.	.
!	!	!	!	!	!LO:LB:g=original	!	!LO:LB:g=original	!	!	!	!	!	!	!	!	!
=23	=23	=23	=23	=23	=23	=23	=23	=23	=23	=23	=23	=23	=23	=23	=23	=23
4r	.	.	8en\L	.	8en/	.	8en/L	.	2.r	.	2.r	.	2.r	.	2.r	.
.	.	.	8e\	.	4g/	.	8g/	.	.	.	.	.	.	.	.	.
4c\	n	.	8c\	.	.	.	8cc/	.	.	.	.	.	.	.	.	.
.	.	.	8c\	.	4cc\	.	8ee/J	.	.	.	.	.	.	.	.	.
4En\	6	.	8cc\	.	.	.	8gg\L	.	.	.	.	.	.	.	.	.
.	.	.	8cc\J	.	8ee\	.	8ccc\J	.	.	.	.	.	.	.	.	.
=24	=24	=24	=24	=24	=24	=24	=24	=24	=24	=24	=24	=24	=24	=24	=24	=24
8r	.	.	8e\L	.	8r	.	(16bbn\LL	.	8r	.	8r	.	8r	.	8r	.
.	.	.	.	.	.	.	16aa\)	.	.	.	.	.	.	.	.	.
!LO:TX:t=P:problem:mixed beam	!	!	!	!	!	!	!	!	!	!	!	!	!	!	!	!
8F\L	6	.	8f\	.	8dd\L	.	16gg\	.	8g\	.	8g\	.	8dd\L	.	8ff\	.
.	.	.	.	.	.	.	16ff\JJ	.	.	.	.	.	.	.	.	.
8G\	6 4	.	8g\	.	8cc\	.	4ee\	.	[2g\	.	[2g\	.	8cc\	.	8een\L	.
8G\	.	.	8g\	.	8g\	.	.	.	.	.	.	.	8ee\	.	8ccc\	.
8GG/	n	.	8f\	.	8f\	.	4dd\	.	.	.	.	.	8bn\	.	8dd\	.
!	!	!	!	!	!	!	!	!	!	!	!	!	!	!	!LO:SIC:v:s=4bbn	!
8GG/J	.	.	8f\J	.	8g\J	.	.	.	.	.	.	.	8dd\J	.	8bb-\J	.
!LO:PB:g=original	!	!	!	!	!	!	!	!	!	!	!	!	!	!	!	!
=25	=25	=25	=25	=25	=25	=25	=25	=25	=25	=25	=25	=25	=25	=25	=25	=25
!	!	!	!	!	!	!	!	!	!LO:TX:t=P:problem:mixed beam	!	!	!	!	!	!	!
4C/	.	.	8e\L	.	4e/	.	8cc\L	.	8g\L]	.	4g\]	.	4ee\	.	8ccc\L	.
.	.	.	8c\	.	.	.	8g\J	.	8c/J	.	.	.	.	.	8gg\J	.
4r	.	.	8c\	.	(16e/LL	.	(16g/LL	.	8c/L	.	8cc\L	.	(16ee\LL	.	(16gg\LL	.
.	.	.	.	.	16d/)	.	16f/)	.	.	.	.	.	16dd\)	.	16ff\)	.
.	.	.	8c\	.	(16c/	.	(16e/	.	8c/J	.	8cc\J	.	(16cc\	.	(16ee\	.
.	.	.	.	.	16d/JJ)	.	16f/JJ)	.	.	.	.	.	16dd\JJ)	.	16ff\JJ)	.
!	!	!	!	!	!	!	!	!	!	!	!	!	!LO:LB:g=original	!	!	!
!	!	!	!	!	!	!	!	!	!	!	!	!	!LO:TX:t=P:problem:mixed beam	!	!	!
4r	.	.	[<4c\	.	4c/	.	4e/	.	[4c/	.	[4cc\	.	8cc\L	.	8ee\L	.
.	.	.	.	.	.	.	.	.	.	.	.	.	[8c/J	.	[8cc\J	.
!	!	!	!	!	!	!	!	!	!	!	!	!	!	!	!LO:LB:g=original	!
=26	=26	=26	=26	=26	=26	=26	=26	=26	=26	=26	=26	=26	=26	=26	=26	=26
*	*	*	*tremolo	*	*	*	*	*	*	*	*	*	*	*	*	*
!LO:TX:a:t=5	!	!	!	!	!	!	!	!	!	!	!	!LO:DY:rj	!	!	!LO:TX:t=P:problem:brak zakończenia ligatury	!LO:DY:t=p&colon;
!	!	!	!	!LO:DY:rj	!	!LO:DY:rj	!	!LO:DY:rj:t=p&colon;	!	!LO:DY:rj	!	!	!	!	!	!
0.r	.	.	8c\L]	p	8.g/L	p	8.b-/L	p	2.c/_	p	2.cc\_<	p	2.c/_	.	2.cc\_<	p
.	.	.	8c\	.	.	.	.	.	.	.	.	.	.	.	.	.
.	.	.	.	.	16f/Jk	.	16a/Jk	.	.	.	.	.	.	.	.	.
.	.	.	8c\	.	8e/L	.	8g/L	.	.	.	.	.	.	.	.	.
.	.	.	8c\	.	8e/J	.	8g/J	.	.	.	.	.	.	.	.	.
.	.	.	8c\	.	(16e/LL	.	(16g/LL	.	.	.	.	.	.	.	.	.
.	.	.	.	.	16f/)	.	16a/)	.	.	.	.	.	.	.	.	.
.	.	.	8c\J	.	(16f/	.	(16a/	.	.	.	.	.	.	.	.	.
.	.	.	.	.	16g/JJ)	.	16b-/JJ)	.	.	.	.	.	.	.	.	.
=27	=27	=27	=27	=27	=27	=27	=27	=27	=27	=27	=27	=27	=27	=27	=27	=27
.	.	.	8c\L	.	(16g/LL	.	(16b-/LL	.	2.c/_	.	2.cc\_<	.	2.c/_	.	2.cc\_<	.
.	.	.	.	.	16f/)	.	16a/)	.	.	.	.	.	.	.	.	.
.	.	.	8c\	.	(16e/	.	(16g/	.	.	.	.	.	.	.	.	.
.	.	.	.	.	16f/JJ)	.	16a/JJ)	.	.	.	.	.	.	.	.	.
.	.	.	8c\	.	(16f/LL	.	(16a/LL	.	.	.	.	.	.	.	.	.
.	.	.	.	.	16e/)	.	16g/)	.	.	.	.	.	.	.	.	.
.	.	.	8c\	.	(16d/	.	(16f/	.	.	.	.	.	.	.	.	.
.	.	.	.	.	16e/JJ)	.	16g/JJ)	.	.	.	.	.	.	.	.	.
.	.	.	8c\	.	4e/	.	4g/	.	.	.	.	.	.	.	.	.
.	.	.	8c\J	.	.	.	.	.	.	.	.	.	.	.	.	.
=28	=28	=28	=28	=28	=28	=28	=28	=28	=28	=28	=28	=28	=28	=28	=28	=28
.	.	.	8c\L	.	8.g/L	.	8.b-/L	.	2.c/_	.	2.cc\_<	.	2.c/_	.	2.cc\_<	.
.	.	.	8c\	.	.	.	.	.	.	.	.	.	.	.	.	.
.	.	.	.	.	16f/Jk	.	16a/Jk	.	.	.	.	.	.	.	.	.
.	.	.	8c\	.	8e/L	.	8g/L	.	.	.	.	.	.	.	.	.
.	.	.	8c\	.	8e/J	.	8g/J	.	.	.	.	.	.	.	.	.
.	.	.	8c\	.	(16e/LL	.	(16g/LL	.	.	.	.	.	.	.	.	.
.	.	.	.	.	16f/)	.	16a/)	.	.	.	.	.	.	.	.	.
.	.	.	8c\J	.	(16f/	.	(16a/	.	.	.	.	.	.	.	.	.
.	.	.	.	.	16g/JJ)	.	16b-/JJ)	.	.	.	.	.	.	.	.	.
!	!	!	!	!	!	!	!LO:LB:g=original	!	!	!	!	!	!	!	!	!
=29	=29	=29	=29	=29	=29	=29	=29	=29	=29	=29	=29	=29	=29	=29	=29	=29
.	.	.	8c\L	.	(16a/LL	.	(16cc/LL	.	2.c/_	.	2.cc\_<	.	2.c/_	.	2.cc\_<	.
.	.	.	.	.	16g/)	.	16b-/)	.	.	.	.	.	.	.	.	.
.	.	.	8c\	.	(16f/	.	(16a/	.	.	.	.	.	.	.	.	.
.	.	.	.	.	16g/JJ)	.	16b-/JJ)	.	.	.	.	.	.	.	.	.
!	!	!	!	!	!LO:LB:g=original	!	!	!	!	!	!	!	!	!	!	!
.	.	.	8c\	.	16g/LL	.	(16b-/LL	.	.	.	.	.	.	.	.	.
.	.	.	.	.	16f/	.	16a/)	.	.	.	.	.	.	.	.	.
.	.	.	8c\	.	16e/	.	(16g/	.	.	.	.	.	.	.	.	.
.	.	.	.	.	16f/JJ	.	16a/JJ)	.	.	.	.	.	.	.	.	.
.	.	.	8c\	.	16f/LL	.	16a/LL	.	.	.	.	.	.	.	.	.
.	.	.	.	.	16a/	.	16cc/	.	.	.	.	.	.	.	.	.
.	.	.	8c\J	.	16g/	.	16b-/	.	.	.	.	.	.	.	.	.
.	.	.	.	.	16f/JJ	.	16a/JJ	.	.	.	.	.	.	.	.	.
*	*	*	*Xtremolo	*	*	*	*	*	*	*	*	*	*	*	*	*
=30	=30	=30	=30	=30	=30	=30	=30	=30	=30	=30	=30	=30	=30	=30	=30	=30
.	.	.	.	.	8qqf/	.	8qqa/	.	.	.	.	.	.	.	.	.
2.r	.	.	8c\L	.	4e/	.	4g/	.	4c/]	.	4cc\]	.	4c/]	.	4cc\]	.
.	.	.	8c\J	.	.	.	.	.	.	.	.	.	.	.	.	.
.	.	.	4c\	.	4e 4G/	.	16g\LL	.	4c/	.	4cc\	.	4c/	.	4cc\	.
.	.	.	.	.	.	.	16cc\	.	.	.	.	.	.	.	.	.
.	.	.	.	.	.	.	(16bn\	.	.	.	.	.	.	.	.	.
.	.	.	.	.	.	.	16cc\JJ)	.	.	.	.	.	.	.	.	.
.	.	.	4r	.	4r	.	(16b\LL	.	4r	.	4r	.	4r	.	4r	.
.	.	.	.	.	.	.	16cc\)	.	.	.	.	.	.	.	.	.
.	.	.	.	.	.	.	(16b\	.	.	.	.	.	.	.	.	.
.	.	.	.	.	.	.	16cc\JJ)	.	.	.	.	.	.	.	.	.
!	!	!	!LO:LB:g=original	!	!	!	!	!	!	!	!	!	!	!	!	!
=31	=31	=31	=31	=31	=31	=31	=31	=31	=31	=31	=31	=31	=31	=31	=31	=31
!	!	!	!	!	!	!	!	!	!LO:TX:a:t=2	!	!LO:TX:a:t=2	!	!LO:TX:a:t=1	!	!LO:TX:a:t=1	!
4F\	.	.	8f\L	.	8r	.	8a\L	.	1.r	.	1.r	.	2.r	.	2.r	.
.	.	.	8f\	.	16ff\LL	.	16aa\L	.	.	.	.	.	.	.	.	.
.	.	.	.	.	16gg\JJ	.	16bb-\JJ	.	.	.	.	.	.	.	.	.
4r	.	.	8f\	.	8aa\L	.	8ccc\L	.	.	.	.	.	.	.	.	.
.	.	.	8f\	.	8aa\J	.	8ccc\J	.	.	.	.	.	.	.	.	.
4C/	-7	.	8c\	.	(16aa\LL	.	(16ccc\LL	.	.	.	.	.	.	.	.	.
.	.	.	.	.	16bb-\)	.	16ddd\)	.	.	.	.	.	.	.	.	.
.	.	.	8c\J	.	16aa\	.	16ccc\	.	.	.	.	.	.	.	.	.
.	.	.	.	.	16gg\JJ	.	16bb-\JJ	.	.	.	.	.	.	.	.	.
=32	=32	=32	=32	=32	=32	=32	=32	=32	=32	=32	=32	=32	=32	=32	=32	=32
!	!	!	!	!	!	!	!	!LO:DY:t=p&colon;	!	!	!	!	!	!	!	!LO:DY:rj:t=p&colon;
4F\	.	.	8A\L	.	2ff\	.	8aa\L	p	.	.	.	.	8r	.	8r	p
!	!	!	!	!	!	!	!	!	!	!	!	!	!	!LO:DY:rj	!	!
.	.	.	8A\	.	.	.	16gg\L	.	.	.	.	.	16ff\LL	p	16aa\LL	.
.	.	.	.	.	.	.	16aa\JJ	.	.	.	.	.	16gg\JJ	.	16bb-\JJ	.
4r	.	.	8A\	.	.	.	8aa\L	.	.	.	.	.	8aa\L	.	8ddd\L	.
.	.	.	8A\	.	.	.	8aa\J	.	.	.	.	.	8aa\J	.	8ccc\J	.
4C/	.	.	8c\	.	4cc\	.	(16aa\LL	.	.	.	.	.	(16aa\LL	.	(16ccc\LL	.
.	.	.	.	.	.	.	16bb-\)	.	.	.	.	.	16bb-\)	.	16ddd\)	.
.	.	.	8c\J	.	.	.	16aa\	.	.	.	.	.	16aa\	.	16ccc\	.
.	.	.	.	.	.	.	16gg\JJ	.	.	.	.	.	16gg\JJ	.	16bb-\JJ	.
!	!	!	!	!	!	!	!	!	!LO:LB:g=original	!	!LO:LB:g=original	!	!	!	!	!
=33	=33	=33	=33	=33	=33	=33	=33	=33	=33	=33	=33	=33	=33	=33	=33	=33
!	!	!	!LO:TX:a:t=f	!	!	!	!	!	!	!	!	!	!	!	!	!
4F\	.	.	4f\	.	4a\	.	16ff\LL	.	4r	.	4r	.	8ff\L	.	4aa\	.
.	.	.	.	.	.	.	16cc\	.	.	.	.	.	.	.	.	.
.	.	.	.	.	.	.	16a\	.	.	.	.	.	8cc\	.	.	.
.	.	.	.	.	.	.	16cc\JJ	.	.	.	.	.	.	.	.	.
!	!	!	!	!	!	!	!	!LO:DY:rj	!	!	!	!	!	!	!	!
4A\	6	.	8a\L	.	8a\L	.	16ff\LL	f	4f\	.	4a\	.	8a\	.	4ff\	.
.	.	.	.	.	.	.	16cc\	.	.	.	.	.	.	.	.	.
.	.	.	8f\	.	8a\	.	16ff\	.	.	.	.	.	8cc\J	.	.	.
.	.	.	.	.	.	.	16aa\JJ	.	.	.	.	.	.	.	.	.
!	!	!	!	!	!	!	!LO:LB:g=original	!	!	!	!	!	!	!	!	!
4c\	.	.	8b-\	.	8b-\	.	16aa\LL	.	4c/	.	4g\	.	8b-\L	.	4gg\	.
.	.	.	.	.	.	.	16gg\	.	.	.	.	.	.	.	.	.
.	.	.	[8cc\J	.	8b-\J	.	16ee\	.	.	.	.	.	[8cc\J	.	.	.
.	.	.	.	.	.	.	16gg\JJ	.	.	.	.	.	.	.	.	.
=34	=34	=34	=34	=34	=34	=34	=34	=34	=34	=34	=34	=34	=34	=34	=34	=34
*	*	*	*	*	*	*	*2\right	*	*	*	*	*	*	*	*	*
8r	.	.	8cc\L]	.	2b-/	.	(2gg\	.	4r	.	4r	.	(2cc\]	.	(2gg\	.
8C\L	.	.	8c\	.	.	.	.	.	.	.	.	.	.	.	.	.
8D\	.	.	8d\	.	.	.	.	.	8.A/L	.	8.f\L	.	.	.	.	.
8E\J	.	.	8e\J	.	.	.	.	.	.	.	.	.	.	.	.	.
.	.	.	.	.	.	.	.	.	16A/Jk	.	16f\Jk	.	.	.	.	.
4F\	.	.	4f\	.	4a/	.	4ff\)	.	4A/	.	4f\	.	4a\)	.	4ff\)	.
==	==	==	==	==	==	==	==	==	==	==	==	==	==	==	==	==
*-	*-	*-	*-	*-	*-	*-	*-	*-	*-	*-	*-	*-	*-	*-	*-	*-
!!!system-decoration: [(g1)][(g2)][(g3)]s8
!!!RDF**kern: < = below
!!!ENC: Anastazja Marusiak
!!!END: 2021-12-08
!!!ENC: Marta Lawrence
!!!END: 2021-12-14
